svgs/sharp-regular/scanner-image.svg

<svg xmlns="http://www.w3.org/2000/svg" viewBox="0 0 576 512"><!--! Font Awesome Pro 6.6.0 by @fontawesome - https://fontawesome.com License - https://fontawesome.com/license (Commercial License) Copyright 2024 Fonticons, Inc. --><path d="M66.2 42.3L44.4 32.1 24.1 75.6 45.8 85.7 478.2 288 48 288 0 288l0 48 0 96 0 48 48 0 480 0 48 0 0-48 0-24 0-24 0-48 0-40 0-8 0-7.3-13.8-6.5-496-232zM528 336l0 48 0 24 0 24L48 432l0-96 480 0zM152 360l0 48 48 0 0-48-48 0zm-32 0l-48 0 0 48 48 0 0-48z"/></svg>

<svg xmlns="http://www.w3.org/2000/svg" viewBox="0 0 576 512"><!--! Font Awesome Pro 6.5.2 by @fontawesome - https://fontawesome.com License - https://fontawesome.com/license (Commercial License) Copyright 2024 Fonticons, Inc. --><path d="M66.2 42.3L44.4 32.1 24.1 75.6 45.8 85.7 478.2 288H48 0v48 96 48H48 528h48V432 408 384 336 296v-8-7.3l-13.8-6.5-496-232zM528 336v48 24 24H48V336H528zM152 360v48h48V360H152zm-32 0H72v48h48V360z"/></svg>
